public/images/projectapp/07.process.svg

<svg viewBox="0 0 48.19 48.19" xmlns="http://www.w3.org/2000/svg"><rect fill="#6a97cf" height="45.04" rx="22.52" width="45.04" x="1.63" y="1.57"/><path d="m28.45 23h-8.24a.41.41 0 0 0 -.41.41v6.15c0 3.35 9.06 3.37 9.06 0v-6.14a.41.41 0 0 0 -.41-.42zm-.41.82v2h-7.42v-2zm-7.42 5.74v-3h7.38v3c0 2.24-7.38 2.25-7.38.01zm17-11.56c0-3.67-4.72-4-4.72-7a.48.48 0 0 0 -.9 0c0 3.67 4.72 4 4.72 7 0 2.57-2.45 3-3.06 3a7.87 7.87 0 0 1 -4.61-7c0-4.9-1.7-7.7-4.67-7.7s-4.67 2.8-4.67 7.7a7.78 7.78 0 0 1 -4.61 7c-.54 0-3.1-.4-3.1-3 0-1.46 1-2.24 2.17-3.14s2.55-2 2.55-3.9a.48.48 0 0 0 -1 0c0 1.46-1 2.24-2.17 3.14s-2.55 2-2.55 3.9a4 4 0 0 0 3.66 4c0 14.35-.31 14.57.47 14.57 19.06 0 18.88.3 18.88-.48v-14.09a3.94 3.94 0 0 0 3.61-4zm-13.29-10.64c3 0 3.65 3.73 3.72 6.27h-7.44c.07-2.54.68-6.27 3.72-6.27zm8.72 28.24h-17.44v-13.74a8.92 8.92 0 0 0 5-7.28h7.46a8.92 8.92 0 0 0 5 7.28z" fill="#1d1d1b"/></svg>

<svg id="Layer_1" data-name="Layer 1" xmlns="http://www.w3.org/2000/svg" viewBox="0 0 48.19 48.19">
  <defs>
    <style>
      .cls-1 {
        fill: #6a97cf;
      }

      .cls-2 {
        fill: #1d1d1b;
      }
    </style>
  </defs>
  <title>process</title>
  <g>
    <rect class="cls-1" x="1.63" y="1.57" width="45.04" height="45.04" rx="22.52"/>
    <path class="cls-2" d="M28.45,23H20.21a.41.41,0,0,0-.41.41v6.15c0,3.35,9.06,3.37,9.06,0V23.42A.41.41,0,0,0,28.45,23Zm-.41.82v2H20.62v-2Zm-7.42,5.74v-3H28v3C28,31.8,20.62,31.81,20.62,29.57ZM37.62,18c0-3.67-4.72-4-4.72-7A.48.48,0,0,0,32,11c0,3.67,4.72,4,4.72,7,0,2.57-2.45,3-3.06,3a7.87,7.87,0,0,1-4.61-7h0c0-4.9-1.7-7.7-4.67-7.7s-4.67,2.8-4.67,7.7h0a7.78,7.78,0,0,1-4.61,7c-.54,0-3.1-.4-3.1-3,0-1.46,1-2.24,2.17-3.14s2.55-2,2.55-3.9a.48.48,0,0,0-1,0c0,1.46-1,2.24-2.17,3.14S11,16.1,11,18a4,4,0,0,0,3.66,4c0,14.35-.31,14.57.47,14.57,19.06,0,18.88.3,18.88-.48V22A3.94,3.94,0,0,0,37.62,18ZM24.33,7.36c3,0,3.65,3.73,3.72,6.27H20.61C20.68,11.09,21.29,7.36,24.33,7.36ZM33.05,35.6H15.61V21.86a8.92,8.92,0,0,0,5-7.28h7.46a8.92,8.92,0,0,0,5,7.28Z"/>
  </g>
</svg>
